public/favicon.svg

<?xml version="1.0" encoding="UTF-8"?>
<!DOCTYPE svg PUBLIC "-//W3C//DTD SVG 1.1//EN" "http://www.w3.org/Graphics/SVG/1.1/DTD/svg11.dtd">
<svg xmlns="http://www.w3.org/2000/svg" version="1.1" width="458px" height="527px" style="shape-rendering:geometricPrecision; text-rendering:geometricPrecision; image-rendering:optimizeQuality; fill-rule:evenodd; clip-rule:evenodd" xmlns:xlink="http://www.w3.org/1999/xlink">
<g><path style="opacity:1" fill="#040302" d="M 70.5,5.5 C 71.2389,5.36899 71.9056,5.53566 72.5,6C 86.3159,24.9478 104.983,33.2811 128.5,31C 147.177,27.4952 163.177,18.9952 176.5,5.5C 200.267,33.3575 228.601,39.1908 261.5,23C 268.81,17.8539 275.476,12.0206 281.5,5.5C 298.723,24.2771 320.057,32.7771 345.5,31C 362.363,27.636 376.03,19.136 386.5,5.5C 402.69,25.1887 418.69,45.022 434.5,65C 422.882,80.1884 417.048,97.3551 417,116.5C 418.003,123.839 420.67,130.505 425,136.5C 432.037,145.205 440.037,152.871 449,159.5C 448.716,168.933 447.383,178.267 445,187.5C 431.337,242.852 409.337,294.519 379,342.5C 336.702,407.321 286.535,465.654 228.5,517.5C 165.503,461.702 112.336,398.035 69,326.5C 38.7535,275.607 18.2535,220.94 7.5,162.5C 8.21864,160.272 9.55197,158.439 11.5,157C 28.3095,146.033 38.3095,130.7 41.5,111C 39.4202,94.0872 33.4202,78.7539 23.5,65C 39.2907,45.245 54.9573,25.4117 70.5,5.5 Z"/></g>
<g><path style="opacity:1" fill="#fcca00" d="M 419.5,157.5 C 292.5,158.833 165.5,158.833 38.5,157.5C 59.5453,135.434 64.3787,110.101 53,81.5C 50.5,76.5 48,71.5 45.5,66.5C 54.0187,54.8024 63.0187,43.4691 72.5,32.5C 95.2241,49.7246 120.224,53.8912 147.5,45C 157.524,41.4879 166.858,36.6546 175.5,30.5C 211.027,57.0861 246.527,57.0861 282,30.5C 303.144,45.8617 326.644,51.695 352.5,48C 364.67,45.506 375.503,40.3393 385,32.5C 394.356,43.6886 403.523,55.0219 412.5,66.5C 395.759,91.3539 394.259,117.021 408,143.5C 411.32,148.647 415.153,153.314 419.5,157.5 Z"/></g>
<g><path style="opacity:1" fill="#040200" d="M 141.5,115.5 C 148.892,113.586 156.559,112.919 164.5,113.5C 167.075,130.906 159.742,140.406 142.5,142C 123.781,142.948 105.114,142.614 86.5,141C 76.8922,138.056 71.7255,131.556 71,121.5C 70.0779,108.443 70.4112,95.4434 72,82.5C 74.4893,74.3253 79.9893,69.4919 88.5,68C 105.798,66.4378 123.132,66.1045 140.5,67C 158.507,67.5075 166.174,76.6742 163.5,94.5C 156.167,94.5 148.833,94.5 141.5,94.5C 141.755,90.5075 140.089,87.6742 136.5,86C 124.833,85.3333 113.167,85.3333 101.5,86C 97.9798,86.504 95.4798,88.3374 94,91.5C 93.3333,99.8333 93.3333,108.167 94,116.5C 95.9272,121.059 99.4272,123.559 104.5,124C 115.966,125.124 127.3,124.457 138.5,122C 140.451,120.266 141.451,118.099 141.5,115.5 Z"/></g>
<g><path style="opacity:1" fill="#040200" d="M 177.5,67.5 C 201.836,67.3334 226.169,67.5 250.5,68C 262.349,68.654 270.183,74.4873 274,85.5C 274.909,99.5472 274.575,113.547 273,127.5C 270,136.147 263.833,140.647 254.5,141C 228.835,141.5 203.169,141.667 177.5,141.5C 177.5,116.833 177.5,92.1667 177.5,67.5 Z"/></g>
<g><path style="opacity:1" fill="#362b00" d="M 321.5,68.5 C 310.5,68.5 299.5,68.5 288.5,68.5C 288.5,92.8333 288.5,117.167 288.5,141.5C 287.502,117.006 287.169,92.339 287.5,67.5C 299.012,67.1719 310.346,67.5052 321.5,68.5 Z"/></g>
<g><path style="opacity:1" fill="#020100" d="M 321.5,68.5 C 335.879,85.5439 349.879,102.877 363.5,120.5C 363.56,121.043 363.893,121.376 364.5,121.5C 365.5,103.846 365.833,86.1792 365.5,68.5C 372.5,68.5 379.5,68.5 386.5,68.5C 386.5,92.8333 386.5,117.167 386.5,141.5C 375.48,141.832 364.48,141.499 353.5,140.5C 339.144,123.312 324.978,105.979 311,88.5C 310.5,106.164 310.333,123.83 310.5,141.5C 303.167,141.5 295.833,141.5 288.5,141.5C 288.5,117.167 288.5,92.8333 288.5,68.5C 299.5,68.5 310.5,68.5 321.5,68.5 Z"/></g>
<g><path style="opacity:1" fill="#6c5600" d="M 365.5,67.5 C 365.5,67.8333 365.5,68.1667 365.5,68.5C 365.833,86.1792 365.5,103.846 364.5,121.5C 363.893,121.376 363.56,121.043 363.5,120.5C 364.167,102.833 364.833,85.1667 365.5,67.5 Z"/></g>
<g><path style="opacity:1" fill="#302600" d="M 365.5,68.5 C 365.5,68.1667 365.5,67.8333 365.5,67.5C 372.833,67.5 380.167,67.5 387.5,67.5C 387.831,92.339 387.498,117.006 386.5,141.5C 386.5,117.167 386.5,92.8333 386.5,68.5C 379.5,68.5 372.5,68.5 365.5,68.5 Z"/></g>
<g><path style="opacity:1" fill="#947600" d="M 239.5,86.5 C 226.5,86.5 213.5,86.5 200.5,86.5C 200.5,98.8333 200.5,111.167 200.5,123.5C 199.505,111.011 199.171,98.3443 199.5,85.5C 213.01,85.1711 226.344,85.5044 239.5,86.5 Z"/></g>
<g><path style="opacity:1" fill="#fecb00" d="M 239.5,86.5 C 245.003,86.1827 248.836,88.516 251,93.5C 251.667,101.5 251.667,109.5 251,117.5C 249.272,120.953 246.438,122.786 242.5,123C 228.504,123.5 214.504,123.667 200.5,123.5C 200.5,111.167 200.5,98.8333 200.5,86.5C 213.5,86.5 226.5,86.5 239.5,86.5 Z"/></g>
<g><path style="opacity:1" fill="#745d00" d="M 164.5,113.5 C 156.559,112.919 148.892,113.586 141.5,115.5C 141.5,114.5 141.5,113.5 141.5,112.5C 149.352,112.175 157.018,112.508 164.5,113.5 Z"/></g>
<g><path style="opacity:1" fill="#917400" d="M 38.5,157.5 C 165.5,158.833 292.5,158.833 419.5,157.5C 420.043,157.56 420.376,157.893 420.5,158.5C 292.833,159.833 165.167,159.833 37.5,158.5C 37.6236,157.893 37.9569,157.56 38.5,157.5 Z"/></g>
<g><path style="opacity:1" fill="#fcca00" d="M 142.5,176.5 C 142.833,251.002 142.499,325.335 141.5,399.5C 120.881,374.368 102.381,347.701 86,319.5C 85.5,271.834 85.3333,224.168 85.5,176.5C 104.5,176.5 123.5,176.5 142.5,176.5 Z"/></g>
<g><path style="opacity:1" fill="#987900" d="M 142.5,176.5 C 143.832,251.001 143.832,325.668 142.5,400.5C 141.893,400.376 141.56,400.043 141.5,399.5C 142.499,325.335 142.833,251.002 142.5,176.5 Z"/></g>
<g><path style="opacity:1" fill="#fecb00" d="M 200.5,177.5 C 219.167,177.5 237.833,177.5 256.5,177.5C 256.5,273.5 256.5,369.5 256.5,465.5C 247.821,475.179 238.488,484.179 228.5,492.5C 219.181,483.681 210.014,474.681 201,465.5C 200.5,369.501 200.333,273.501 200.5,177.5 Z"/></g>
<g><path style="opacity:1" fill="#cfa500" d="M 200.5,177.5 C 219.326,176.503 238.326,176.17 257.5,176.5C 257.833,273.001 257.499,369.335 256.5,465.5C 256.5,369.5 256.5,273.5 256.5,177.5C 237.833,177.5 219.167,177.5 200.5,177.5 Z"/></g>
<g><path style="opacity:1" fill="#e3b500" d="M 371.5,177.5 C 352.833,177.5 334.167,177.5 315.5,177.5C 315.167,251.335 315.501,325.002 316.5,398.5C 316.217,399.289 315.717,399.956 315,400.5C 314.5,325.834 314.333,251.167 314.5,176.5C 333.674,176.17 352.674,176.503 371.5,177.5 Z"/></g>
<g><path style="opacity:1" fill="#fecb00" d="M 371.5,177.5 C 371.667,225.168 371.5,272.834 371,320.5C 354.535,347.79 336.368,373.79 316.5,398.5C 315.501,325.002 315.167,251.335 315.5,177.5C 334.167,177.5 352.833,177.5 371.5,177.5 Z"/></g>
</svg>

<svg xmlns="http://www.w3.org/2000/svg" width="458" height="527" style="shape-rendering:geometricPrecision;text-rendering:geometricPrecision;image-rendering:optimizeQuality;fill-rule:evenodd;clip-rule:evenodd"><path fill="#040302" d="M70.5 5.5a2.427 2.427 0 0 1 2 .5c13.816 18.948 32.483 27.281 56 25 18.677-3.505 34.677-12.005 48-25.5 23.767 27.858 52.101 33.69 85 17.5a125.49 125.49 0 0 0 20-17.5c17.223 18.777 38.557 27.277 64 25.5 16.863-3.364 30.53-11.864 41-25.5a4080.67 4080.67 0 0 1 48 59.5c-11.618 15.188-17.452 32.355-17.5 51.5 1.003 7.339 3.67 14.005 8 20a130.617 130.617 0 0 0 24 23 127.005 127.005 0 0 1-4 28c-13.663 55.352-35.663 107.019-66 155-42.298 64.821-92.465 123.154-150.5 175-62.997-55.798-116.164-119.465-159.5-191-30.246-50.893-50.746-105.56-61.5-164 .719-2.228 2.052-4.061 4-5.5 16.81-10.967 26.81-26.3 30-46-2.08-16.913-8.08-32.246-18-46a6568.956 6568.956 0 0 0 47-59.5Z" style="opacity:1"/><path fill="#fcca00" d="M419.5 157.5c-127 1.333-254 1.333-381 0 21.045-22.066 25.879-47.399 14.5-76l-7.5-15a520.86 520.86 0 0 1 27-34c22.724 17.225 47.724 21.391 75 12.5a111.697 111.697 0 0 0 28-14.5c35.527 26.586 71.027 26.586 106.5 0 21.144 15.362 44.644 21.195 70.5 17.5 12.17-2.494 23.003-7.66 32.5-15.5a1337.137 1337.137 0 0 1 27.5 34c-16.741 24.854-18.241 50.521-4.5 77a78.218 78.218 0 0 0 11.5 14Z" style="opacity:1"/><path fill="#040200" d="M141.5 115.5c7.392-1.914 15.059-2.581 23-2 2.575 17.406-4.758 26.906-22 28.5a408.392 408.392 0 0 1-56-1c-9.608-2.944-14.775-9.444-15.5-19.5a202.356 202.356 0 0 1 1-39c2.49-8.175 7.99-13.008 16.5-14.5a367.202 367.202 0 0 1 52-1c18.007.507 25.674 9.674 23 27.5h-22c.255-3.993-1.411-6.826-5-8.5a306.485 306.485 0 0 0-35 0c-3.52.504-6.02 2.337-7.5 5.5a156.492 156.492 0 0 0 0 25c1.927 4.559 5.427 7.059 10.5 7.5 11.466 1.124 22.8.457 34-2 1.951-1.734 2.951-3.901 3-6.5ZM177.5 67.5c24.336-.167 48.669 0 73 .5 11.849.654 19.683 6.487 23.5 17.5a237.169 237.169 0 0 1-1 42c-3 8.647-9.167 13.147-18.5 13.5-25.665.5-51.331.667-77 .5v-74Z" style="opacity:1"/><path fill="#362b00" d="M321.5 68.5h-33v73a1369.272 1369.272 0 0 1-1-74c11.512-.328 22.846.005 34 1Z" style="opacity:1"/><path fill="#020100" d="M321.5 68.5a1562.062 1562.062 0 0 1 42 52c.06.543.393.876 1 1a702.8 702.8 0 0 0 1-53h21v73c-11.02.332-22.02-.001-33-1a3152.994 3152.994 0 0 1-42.5-52c-.5 17.664-.667 35.33-.5 53h-22v-73h33Z" style="opacity:1"/><path fill="#6c5600" d="M365.5 67.5v1a702.8 702.8 0 0 1-1 53c-.607-.124-.94-.457-1-1l2-53Z" style="opacity:1"/><path fill="#302600" d="M365.5 68.5v-1h22c.331 24.839-.002 49.506-1 74v-73h-21Z" style="opacity:1"/><path fill="#947600" d="M239.5 86.5h-39v37a361.606 361.606 0 0 1-1-38c13.51-.329 26.844.004 40 1Z" style="opacity:1"/><path fill="#fecb00" d="M239.5 86.5c5.503-.317 9.336 2.016 11.5 7 .667 8 .667 16 0 24-1.728 3.453-4.562 5.286-8.5 5.5-13.996.5-27.996.667-42 .5v-37h39Z" style="opacity:1"/><path fill="#745d00" d="M164.5 113.5c-7.941-.581-15.608.086-23 2v-3c7.852-.325 15.518.008 23 1Z" style="opacity:1"/><path fill="#917400" d="M38.5 157.5c127 1.333 254 1.333 381 0 .543.06.876.393 1 1a18341.21 18341.21 0 0 1-383 0c.124-.607.457-.94 1-1Z" style="opacity:1"/><path fill="#fcca00" d="M142.5 176.5c.333 74.502-.001 148.835-1 223a605.034 605.034 0 0 1-55.5-80c-.5-47.666-.667-95.332-.5-143h57Z" style="opacity:1"/><path fill="#987900" d="M142.5 176.5a6278.77 6278.77 0 0 1 0 224c-.607-.124-.94-.457-1-1 .999-74.165 1.333-148.498 1-223Z" style="opacity:1"/><path fill="#fecb00" d="M200.5 177.5h56v288a267.738 267.738 0 0 1-28 27 1049.015 1049.015 0 0 1-27.5-27c-.5-95.999-.667-191.999-.5-288Z" style="opacity:1"/><path fill="#cfa500" d="M200.5 177.5a813 813 0 0 1 57-1c.333 96.501-.001 192.835-1 289v-288h-56Z" style="opacity:1"/><path fill="#e3b500" d="M371.5 177.5h-56c-.333 73.835.001 147.502 1 221-.283.789-.783 1.456-1.5 2-.5-74.666-.667-149.333-.5-224a813 813 0 0 1 57 1Z" style="opacity:1"/><path fill="#fecb00" d="M371.5 177.5c.167 47.668 0 95.334-.5 143a708.067 708.067 0 0 1-54.5 78 12209.106 12209.106 0 0 1-1-221h56Z" style="opacity:1"/></svg>
